!!!OTL: NUN SCHUERZ DICH GRETLEIN
!!!ARE: Europa, Mitteleuropa, Deutschland, Norddeutschland
!!!SCT: E0113A
!!!YEM: Copyright 1995, estate of Helmut Schaffrath.
**kern
*ICvox
*Ivox
*M4/4
*k[f#]
*G:
{4dd
=1
4dd
4dd
4b
4b
=2
2cc
4a}
{4a
=3
4b
4b
4.g
8g
=4
2a
4r}
{4a
=5
4b
4cc
4dd
4b
=6
2cc
4b}
{4b
=7
4dd
4dd
8cc
8dd
4ee
=8
2dd
4b}
{4dd
=9
4.ee
8dd
4dd
4dd
=10
2.b}
==
!!!AGN: erzaehlendes Volks - Lied, Schalk -, Schelmen - Lied, betrogene Liebe     Ballade ?
!!!ONB: ESAC (Essen Associative Code) Database: ERK1
!!!AMT: simple quadruple
!!!AIN: vox
!!!EED: Helmut Schaffrath
!!!EEV: 1.0
*-
!!!title: @{OTL} [@{SCT}]
